X: 98
T: No_27_Fourth_Song_of_the_Mî'nîsîno'wuck.krn
%%abc-version 2.0
%%abcx-abcm2ps-target-version 5.9.1 (29 Sep 2008)
%%abc-creator hum2abc beta
%%abcx-conversion-date 2020/08/10 18:54:56
%%humdrum-veritas 3648222530
%%humdrum-veritas-data 2191390759
%%linebreak <none>
%%barnumbers 0
L: 1/4
M: 7/4
K: B clef=treble
[K:clef=treble][M:7/4]FFF2DCC | 
FFEDCDC ||  
[M:4/4]B,2-B,2[K:clef=bass] ||  
[M:7/4]B,B,B,2G,G,2 | 
CCCCCDD ||  
[M:4/4]C2-C2 ||  
[M:7/4]DDC2B,B,B, | 
B,B,G,B,B,CC ||  
[M:4/4]B,2-B,2 ||  
[M:7/4]B,B,B,2G,F,2 | 
B,B,G,G,F,G,G, ||  
[M:4/4]F,2-F,2 ||  
[M:7/4]F,F,F,2D,C,2 | 
F,F,D,D,C,D,C, ||  
[M:4/4]B,,2-B,,2 |]  


